Newaita-dark/apps/48/bomi.svg

<svg height="48pt" viewBox="0 0 48 48" width="48pt" xmlns="http://www.w3.org/2000/svg" xmlns:xlink="http://www.w3.org/1999/xlink"><linearGradient id="a" gradientUnits="userSpaceOnUse" x1="23.81478" x2="23.81478" y1="42.0509045" y2="44.03547050005"><stop offset="0" stop-opacity=".27451"/><stop offset="1" stop-opacity="0"/></linearGradient><linearGradient id="b"><stop offset="0" stop-opacity=".313726"/><stop offset=".222222" stop-opacity=".27451"/><stop offset="1" stop-opacity="0"/></linearGradient><radialGradient id="c" cx="450.908936" cy="189.579361" gradientTransform="matrix(.00000026 -.117199 -.210958 -.00000015 78.195972 95.392999)" gradientUnits="userSpaceOnUse" r="21.166656" xlink:href="#b"/><radialGradient id="d" cx="450.908936" cy="189.579361" gradientTransform="matrix(-.00000026 .117199 .210958 .00000015 -30.56642 -11.291218)" gradientUnits="userSpaceOnUse" r="21.166656" xlink:href="#b"/><radialGradient id="e" cx="450.908936" cy="189.579361" gradientTransform="matrix(-.00000026 -.117199 .210958 -.00000015 -30.56642 95.392999)" gradientUnits="userSpaceOnUse" r="21.166656" xlink:href="#b"/><radialGradient id="f" cx="450.908936" cy="189.579361" gradientTransform="matrix(.00000026 .117199 -.210958 .00000015 78.195969 -11.291219)" gradientUnits="userSpaceOnUse" r="21.166656" xlink:href="#b"/><linearGradient id="g" gradientUnits="userSpaceOnUse" x1="15.87652349995" x2="15.87652349995" y1="42.0509015" y2="4.3441580001"><stop offset="0" stop-color="#ec407a"/><stop offset="1" stop-color="#f06292"/></linearGradient><linearGradient id="h" gradientUnits="userSpaceOnUse" x1="23.814816" x2="23.814816" y1="42.05096580616" y2="4.34417266504"><stop offset="0" stop-color="#bdbdbd"/><stop offset="1" stop-color="#e0e0e0"/></linearGradient><path d="m8.929688 41.902344h29.769531v2.207031h-29.769531zm0 0" fill="url(#a)"/><path d="m38.699219 42.050781h3.96875v-1.984375h-3.96875zm0 0" fill="url(#c)"/><path d="m8.929688 42.050781h-3.96875v1.984375h3.96875zm0 0" fill="url(#d)"/><path d="m8.929688 42.050781h-3.96875v-1.984375h3.96875zm0 0" fill="url(#e)"/><path d="m38.699219 42.050781h3.96875v1.984375h-3.96875zm0 0" fill="url(#f)"/><path d="m6.945312 4.34375h33.738282c1.097656 0 1.984375.890625 1.984375 1.984375v33.738281c0 1.097656-.886719 1.984375-1.984375 1.984375h-33.738282c-1.09375 0-1.984374-.886719-1.984374-1.984375v-33.738281c0-1.09375.890624-1.984375 1.984374-1.984375zm0 0" fill="url(#g)"/><path d="m6.945312 4.34375c-1.097656 0-1.984374.886719-1.984374 1.984375v.25c0-1.101563.886718-1.988281 1.984374-1.984375h33.738282c1.097656-.003906 1.984375.882812 1.984375 1.984375v-.25c0-1.097656-.886719-1.984375-1.984375-1.984375zm0 0" fill="#e6e6e6" fill-opacity=".392157"/><path d="m6.945312 42.050781c-1.097656 0-1.984374-.886719-1.984374-1.984375v-.25c0 1.101563.886718 1.988282 1.984374 1.988282h33.738282c1.097656 0 1.984375-.886719 1.984375-1.988282v.25c0 1.097656-.886719 1.984375-1.984375 1.984375zm0 0" fill-opacity=".196078"/><path d="m74.076259-168.671091h359.840637c11.707216 0 21.164646 9.499093 21.164646 21.164646v359.840637c0 11.707215-9.45743 21.164645-21.164646 21.164645h-359.840637c-11.665552 0-21.164645-9.45743-21.164645-21.164645v-359.840637c0-11.665553 9.499093-21.164646 21.164645-21.164646zm0 0" fill="none" stroke="#212121" stroke-linecap="round" stroke-width="3" transform="matrix(.093759 0 0 .093759 0 20.158175)"/><path d="m23.816406 11.289062c-1.03125 0-2.027344.128907-2.976562.375v16.496094c0 .824219-.664063 1.488282-1.492188 1.488282-.824218 0-1.488281-.664063-1.488281-1.488282v-15.285156c-3.5625 2.050781-5.953125 5.898438-5.953125 10.324219 0 6.59375 5.3125 11.90625 11.910156 11.90625 6.59375 0 11.90625-5.3125 11.90625-11.90625 0-6.597657-5.3125-11.910157-11.90625-11.910157zm.027344 5.449219c.304688.007813.597656.105469.839844.277344l6.949218 4.964844c.835938.597656.835938 1.839843 0 2.4375l-6.949218 4.960937c-.988282.707032-2.367188 0-2.367188-1.21875v-9.925781c0-.835937.691406-1.511719 1.527344-1.496094zm0 0" fill="url(#h)"/><path d="m23.816406 11.289062c-1.03125 0-2.027344.128907-2.976562.375v.742188c.949218-.242188 1.945312-.371094 2.976562-.371094 6.46875 0 11.699219 5.105469 11.898438 11.527344.003906-.121094.007812-.242188.007812-.363281 0-6.597657-5.3125-11.910157-11.90625-11.910157zm-5.957031 1.585938c-3.5625 2.050781-5.953125 5.898438-5.953125 10.324219 0 .125.003906.246093.007812.371093.128907-4.265624 2.484376-7.957031 5.945313-9.953124zm14.316406 10.820312c-.097656.277344-.277343.53125-.542969.722657l-6.949218 4.960937c-.988282.707032-2.367188 0-2.367188-1.21875v.742188c0 1.21875 1.378906 1.925781 2.367188 1.21875l6.949218-4.960938c.265626-.1875.445313-.445312.542969-.722656.011719.042969.027344.082031.035157.125.074218-.285156.0625-.589844-.035157-.867188zm-14.316406 4.464844v.742188c0 .824218.664063 1.488281 1.488281 1.488281.828125 0 1.492188-.664063 1.492188-1.488281v-.742188c0 .824219-.664063 1.488282-1.492188 1.488282-.824218 0-1.488281-.664063-1.488281-1.488282zm0 0" fill="#fff"/><path d="m23.84375 16.765625c-.835938-.015625-1.527344.660156-1.527344 1.5v.972656c0-.839843.691406-1.515625 1.527344-1.5.304688.007813.597656.105469.839844.28125l6.949218 4.960938c.265626.191406.449219.449219.546876.730469.203124-.59375.019531-1.296876-.546876-1.703126l-6.949218-4.964843c-.242188-.171875-.535156-.269531-.839844-.277344zm11.867188 6.945313c-.253907 6.371093-5.460938 11.421874-11.894532 11.421874s-11.644531-5.050781-11.898437-11.417968c-.007813.160156-.011719.320312-.011719.484375 0 6.597656 5.3125 11.90625 11.910156 11.90625 6.59375 0 11.90625-5.308594 11.90625-11.90625 0-.164063-.003906-.324219-.011718-.488281zm0 0" fill-opacity=".235294"/><path d="m960.065849 455.074677c-41.570835 0-81.724483 5.196354-119.988548 15.116667v664.975903c0 33.225176-26.769099 59.994274-60.151739 59.994274-33.225176 0-59.994274-26.769098-59.994274-59.994274v-616.161664c-143.608341 82.669275-239.977096 237.772582-239.977096 416.180751 0 265.801403 214.152789 479.954192 480.111657 479.954192 265.801403 0 479.954192-214.152789 479.954192-479.954192 0-265.958868-214.152789-480.111657-479.954192-480.111657zm1.102257 219.664074c12.282292.31493 24.092189 4.251562 33.855037 11.180035l280.130743 200.138379c33.697572 24.092188 33.697572 74.166149 0 98.258338l-280.130743 199.980913c-39.838718 28.501217-95.423964 0-95.423964-49.129169v-400.119292c0-33.697571 27.871356-60.939065 61.568927-60.309204zm0 0" fill="none" stroke="#212121" stroke-linecap="round" stroke-linejoin="round" stroke-width="11.338583" transform="scale(.0248071)"/></svg>

<?xml version="1.0" encoding="UTF-8"?>
<svg xmlns="http://www.w3.org/2000/svg" xmlns:xlink="http://www.w3.org/1999/xlink" width="48pt" height="48pt" viewBox="0 0 48 48" version="1.1">
<defs>
<linearGradient id="linear0" gradientUnits="userSpaceOnUse" x1="254" y1="233.5" x2="254" y2="254.666672" gradientTransform="matrix(0.093759,0,0,0.093759,-0.00000572259,20.158178)">
<stop offset="0" style="stop-color:rgb(0%,0%,0%);stop-opacity:0.27451;"/>
<stop offset="1" style="stop-color:rgb(0%,0%,0%);stop-opacity:0;"/>
</linearGradient>
<radialGradient id="radial0" gradientUnits="userSpaceOnUse" cx="450.908936" cy="189.579361" fx="450.908936" fy="189.579361" r="21.166656" gradientTransform="matrix(0.000000261256,-0.117199,-0.210958,-0.000000152308,78.195972,95.392999)">
<stop offset="0" style="stop-color:rgb(0%,0%,0%);stop-opacity:0.313726;"/>
<stop offset="0.222222" style="stop-color:rgb(0%,0%,0%);stop-opacity:0.27451;"/>
<stop offset="1" style="stop-color:rgb(0%,0%,0%);stop-opacity:0;"/>
</radialGradient>
<radialGradient id="radial1" gradientUnits="userSpaceOnUse" cx="450.908936" cy="189.579361" fx="450.908936" fy="189.579361" r="21.166656" gradientTransform="matrix(-0.000000261256,0.117199,0.210958,0.000000152308,-30.56642,-11.291218)">
<stop offset="0" style="stop-color:rgb(0%,0%,0%);stop-opacity:0.313726;"/>
<stop offset="0.222222" style="stop-color:rgb(0%,0%,0%);stop-opacity:0.27451;"/>
<stop offset="1" style="stop-color:rgb(0%,0%,0%);stop-opacity:0;"/>
</radialGradient>
<radialGradient id="radial2" gradientUnits="userSpaceOnUse" cx="450.908936" cy="189.579361" fx="450.908936" fy="189.579361" r="21.166656" gradientTransform="matrix(-0.000000261256,-0.117199,0.210958,-0.000000152308,-30.56642,95.392999)">
<stop offset="0" style="stop-color:rgb(0%,0%,0%);stop-opacity:0.313726;"/>
<stop offset="0.222222" style="stop-color:rgb(0%,0%,0%);stop-opacity:0.27451;"/>
<stop offset="1" style="stop-color:rgb(0%,0%,0%);stop-opacity:0;"/>
</radialGradient>
<radialGradient id="radial3" gradientUnits="userSpaceOnUse" cx="450.908936" cy="189.579361" fx="450.908936" fy="189.579361" r="21.166656" gradientTransform="matrix(0.000000261256,0.117199,-0.210958,0.000000152308,78.195969,-11.291219)">
<stop offset="0" style="stop-color:rgb(0%,0%,0%);stop-opacity:0.313726;"/>
<stop offset="0.222222" style="stop-color:rgb(0%,0%,0%);stop-opacity:0.27451;"/>
<stop offset="1" style="stop-color:rgb(0%,0%,0%);stop-opacity:0;"/>
</radialGradient>
<linearGradient id="linear1" gradientUnits="userSpaceOnUse" x1="169.333328" y1="233.5" x2="169.333328" y2="-168.666656" gradientTransform="matrix(0.093759,0,0,0.093759,0,20.158175)">
<stop offset="0" style="stop-color:rgb(92.54902%,25.098041%,47.843137%);stop-opacity:1;"/>
<stop offset="1" style="stop-color:rgb(94.117647%,38.431373%,57.254905%);stop-opacity:1;"/>
</linearGradient>
<linearGradient id="linear2" gradientUnits="userSpaceOnUse" x1="960" y1="1695.118164" x2="960" y2="175.118118" gradientTransform="matrix(0.0248071,0,0,0.0248071,0,0.00000000000000282)">
<stop offset="0" style="stop-color:rgb(74.117649%,74.117649%,74.117649%);stop-opacity:1;"/>
<stop offset="1" style="stop-color:rgb(87.843138%,87.843138%,87.843138%);stop-opacity:1;"/>
</linearGradient>
</defs>
<g id="surface1">
<path style=" stroke:none;fill-rule:nonzero;fill:url(#linear0);" d="M 8.929688 41.902344 L 38.699219 41.902344 L 38.699219 44.109375 L 8.929688 44.109375 Z M 8.929688 41.902344 "/>
<path style=" stroke:none;fill-rule:nonzero;fill:url(#radial0);" d="M 38.699219 42.050781 L 42.667969 42.050781 L 42.667969 40.066406 L 38.699219 40.066406 Z M 38.699219 42.050781 "/>
<path style=" stroke:none;fill-rule:nonzero;fill:url(#radial1);" d="M 8.929688 42.050781 L 4.960938 42.050781 L 4.960938 44.035156 L 8.929688 44.035156 Z M 8.929688 42.050781 "/>
<path style=" stroke:none;fill-rule:nonzero;fill:url(#radial2);" d="M 8.929688 42.050781 L 4.960938 42.050781 L 4.960938 40.066406 L 8.929688 40.066406 Z M 8.929688 42.050781 "/>
<path style=" stroke:none;fill-rule:nonzero;fill:url(#radial3);" d="M 38.699219 42.050781 L 42.667969 42.050781 L 42.667969 44.035156 L 38.699219 44.035156 Z M 38.699219 42.050781 "/>
<path style=" stroke:none;fill-rule:nonzero;fill:url(#linear1);" d="M 6.945312 4.34375 L 40.683594 4.34375 C 41.78125 4.34375 42.667969 5.234375 42.667969 6.328125 L 42.667969 40.066406 C 42.667969 41.164062 41.78125 42.050781 40.683594 42.050781 L 6.945312 42.050781 C 5.851562 42.050781 4.960938 41.164062 4.960938 40.066406 L 4.960938 6.328125 C 4.960938 5.234375 5.851562 4.34375 6.945312 4.34375 Z M 6.945312 4.34375 "/>
<path style=" stroke:none;fill-rule:nonzero;fill:rgb(90.196079%,90.196079%,90.196079%);fill-opacity:0.392157;" d="M 6.945312 4.34375 C 5.847656 4.34375 4.960938 5.230469 4.960938 6.328125 L 4.960938 6.578125 C 4.960938 5.476562 5.847656 4.589844 6.945312 4.59375 L 40.683594 4.59375 C 41.78125 4.589844 42.667969 5.476562 42.667969 6.578125 L 42.667969 6.328125 C 42.667969 5.230469 41.78125 4.34375 40.683594 4.34375 Z M 6.945312 4.34375 "/>
<path style=" stroke:none;fill-rule:nonzero;fill:rgb(0%,0%,0%);fill-opacity:0.196078;" d="M 6.945312 42.050781 C 5.847656 42.050781 4.960938 41.164062 4.960938 40.066406 L 4.960938 39.816406 C 4.960938 40.917969 5.847656 41.804688 6.945312 41.804688 L 40.683594 41.804688 C 41.78125 41.804688 42.667969 40.917969 42.667969 39.816406 L 42.667969 40.066406 C 42.667969 41.164062 41.78125 42.050781 40.683594 42.050781 Z M 6.945312 42.050781 "/>
<path style="fill:none;stroke-width:3;stroke-linecap:round;stroke-linejoin:miter;stroke:rgb(12.941177%,12.941177%,12.941177%);stroke-opacity:1;stroke-miterlimit:4;" d="M 74.076259 -168.671091 L 433.916896 -168.671091 C 445.624112 -168.671091 455.081542 -159.171998 455.081542 -147.506445 L 455.081542 212.334192 C 455.081542 224.041407 445.624112 233.498837 433.916896 233.498837 L 74.076259 233.498837 C 62.410707 233.498837 52.911614 224.041407 52.911614 212.334192 L 52.911614 -147.506445 C 52.911614 -159.171998 62.410707 -168.671091 74.076259 -168.671091 Z M 74.076259 -168.671091 " transform="matrix(0.093759,0,0,0.093759,0,20.158175)"/>
<path style=" stroke:none;fill-rule:nonzero;fill:url(#linear2);" d="M 23.816406 11.289062 C 22.785156 11.289062 21.789062 11.417969 20.839844 11.664062 L 20.839844 28.160156 C 20.839844 28.984375 20.175781 29.648438 19.347656 29.648438 C 18.523438 29.648438 17.859375 28.984375 17.859375 28.160156 L 17.859375 12.875 C 14.296875 14.925781 11.90625 18.773438 11.90625 23.199219 C 11.90625 29.792969 17.21875 35.105469 23.816406 35.105469 C 30.410156 35.105469 35.722656 29.792969 35.722656 23.199219 C 35.722656 16.601562 30.410156 11.289062 23.816406 11.289062 Z M 23.84375 16.738281 C 24.148438 16.746094 24.441406 16.84375 24.683594 17.015625 L 31.632812 21.980469 C 32.46875 22.578125 32.46875 23.820312 31.632812 24.417969 L 24.683594 29.378906 C 23.695312 30.085938 22.316406 29.378906 22.316406 28.160156 L 22.316406 18.234375 C 22.316406 17.398438 23.007812 16.722656 23.84375 16.738281 Z M 23.84375 16.738281 "/>
<path style=" stroke:none;fill-rule:nonzero;fill:rgb(100%,100%,100%);fill-opacity:1;" d="M 23.816406 11.289062 C 22.785156 11.289062 21.789062 11.417969 20.839844 11.664062 L 20.839844 12.40625 C 21.789062 12.164062 22.785156 12.035156 23.816406 12.035156 C 30.285156 12.035156 35.515625 17.140625 35.714844 23.5625 C 35.71875 23.441406 35.722656 23.320312 35.722656 23.199219 C 35.722656 16.601562 30.410156 11.289062 23.816406 11.289062 Z M 17.859375 12.875 C 14.296875 14.925781 11.90625 18.773438 11.90625 23.199219 C 11.90625 23.324219 11.910156 23.445312 11.914062 23.570312 C 12.042969 19.304688 14.398438 15.613281 17.859375 13.617188 Z M 32.175781 23.695312 C 32.078125 23.972656 31.898438 24.226562 31.632812 24.417969 L 24.683594 29.378906 C 23.695312 30.085938 22.316406 29.378906 22.316406 28.160156 L 22.316406 28.902344 C 22.316406 30.121094 23.695312 30.828125 24.683594 30.121094 L 31.632812 25.160156 C 31.898438 24.972656 32.078125 24.714844 32.175781 24.4375 C 32.1875 24.480469 32.203125 24.519531 32.210938 24.5625 C 32.285156 24.277344 32.273438 23.972656 32.175781 23.695312 Z M 17.859375 28.160156 L 17.859375 28.902344 C 17.859375 29.726562 18.523438 30.390625 19.347656 30.390625 C 20.175781 30.390625 20.839844 29.726562 20.839844 28.902344 L 20.839844 28.160156 C 20.839844 28.984375 20.175781 29.648438 19.347656 29.648438 C 18.523438 29.648438 17.859375 28.984375 17.859375 28.160156 Z M 17.859375 28.160156 "/>
<path style=" stroke:none;fill-rule:nonzero;fill:rgb(0%,0%,0%);fill-opacity:0.235294;" d="M 23.84375 16.765625 C 23.007812 16.75 22.316406 17.425781 22.316406 18.265625 L 22.316406 19.238281 C 22.316406 18.398438 23.007812 17.722656 23.84375 17.738281 C 24.148438 17.746094 24.441406 17.84375 24.683594 18.019531 L 31.632812 22.980469 C 31.898438 23.171875 32.082031 23.429688 32.179688 23.710938 C 32.382812 23.117188 32.199219 22.414062 31.632812 22.007812 L 24.683594 17.042969 C 24.441406 16.871094 24.148438 16.773438 23.84375 16.765625 Z M 35.710938 23.710938 C 35.457031 30.082031 30.25 35.132812 23.816406 35.132812 C 17.382812 35.132812 12.171875 30.082031 11.917969 23.714844 C 11.910156 23.875 11.90625 24.035156 11.90625 24.199219 C 11.90625 30.796875 17.21875 36.105469 23.816406 36.105469 C 30.410156 36.105469 35.722656 30.796875 35.722656 24.199219 C 35.722656 24.035156 35.71875 23.875 35.710938 23.710938 Z M 35.710938 23.710938 "/>
<path style="fill:none;stroke-width:11.338583;stroke-linecap:round;stroke-linejoin:round;stroke:rgb(12.941177%,12.941177%,12.941177%);stroke-opacity:1;stroke-miterlimit:4;" d="M 960.065849 455.074677 C 918.495014 455.074677 878.341366 460.271031 840.077301 470.191344 L 840.077301 1135.167247 C 840.077301 1168.392423 813.308202 1195.161521 779.925562 1195.161521 C 746.700386 1195.161521 719.931288 1168.392423 719.931288 1135.167247 L 719.931288 519.005583 C 576.322947 601.674858 479.954192 756.778165 479.954192 935.186334 C 479.954192 1200.987737 694.106981 1415.140526 960.065849 1415.140526 C 1225.867252 1415.140526 1440.020041 1200.987737 1440.020041 935.186334 C 1440.020041 669.227466 1225.867252 455.074677 960.065849 455.074677 Z M 961.168106 674.738751 C 973.450398 675.053681 985.260295 678.990313 995.023143 685.918786 L 1275.153886 886.057165 C 1308.851458 910.149353 1308.851458 960.223314 1275.153886 984.315503 L 995.023143 1184.296416 C 955.184425 1212.797633 899.599179 1184.296416 899.599179 1135.167247 L 899.599179 735.047955 C 899.599179 701.350384 927.470535 674.10889 961.168106 674.738751 Z M 961.168106 674.738751 " transform="matrix(0.0248071,0,0,0.0248071,0,0)"/>
</g>
</svg>
